-----BEGIN PGP PUBLIC KEY BLOCK-----

mQINBF6i+TEBEADafn73f7PgLE0YbUCzVcQzLctsnFeAreGseYF2vC89pTZpelYP
Ulw6ALAW3ce5IDwAIDpNKwX8sluCySyOS66M8X+yPVWnyzqZYUqI5+cDAHsiNfH2
I9owGkoCOv9/e2SixYuresznehjpfLzcitn5FzG/1k0hReAYMAaFKSfwhBuBQuhZ
Yd9LLQv4Ujhwm5uc+LbMgBlzVfvUgmdztuWA9RoEqtiRT83MIbEKO9e8V0w405xT
8SJqZBAwappUmar6fcGwvOuD82nmGsKMRvW/hm4213+D5s7j+qYla2vVT319sUqj
+GegD1bVofJkkD1ivksU7f1W8/RnEfabCRs1DPu5cEhXS6nRUcLQEMFyloX+3Kce
d258Y2Fo6NmOFRgAydOiEv/PZuVaM25+uuGtxgkDHV7vvMEIdrtDN20qw04QWO3P
VpkVqxezJkZwMTR7vPNDWbgTsXzXja0tFOj1fpJjF132x4hOvIFGp0xtcz8lqeH2
bbhrx9kjmXC62dKIulUJVugg2PUCo6tMFvFd4Mvn0VbUtJ84NUdVqTSMQ6ScAKAP
eOQpU2kORttnLzMZnWJa682fTK+CdwD/+Bn27DVi8r2DfUBe2geWmGfb1sMN48W5
rJ++XuoxmUt9/F5GSIeqyPFUZgMkz40LASzOTGLVSft/GsVsh2FbE0LJBwARAQAB
tCRQYWJsbyBHcmVjbyA8cGdyZWNvQGJsb2Nrc3RyZWFtLmNvbT6JAlEEEwEIADsC
GwMFCwkIBwIGFQoJCAsCBBYCAwECHgECF4AWIQS9DzBi+HhCQQsGoEMvZWsGEGBE
ggUCZjuKRwIZAQAKCRAvZWsGEGBEgk1GEACNguAxTNgh3sukmkRsU4GQ6RoQc+N+
DOEaO4ENC7B1imX5hR47q2EGQETOme1vGoQubwJ7ItUwmBb1RE/WbpcIuevkEYhW
4rxh2XK5liG9/PmXl2RNx8NWhz5wQOqAcD5k220emwhHtTHL7TZZ28KKcPfbZdsz
5aL70H2y/Lf0zGIwWvMVDzhqexHvDadmgE9rOXeA08M5Np8whnlHIanxwuybXbGJ
+dJvjPotxn0EEp8wdwX2vaOsrfyY7bCECWWGTZM3WGrghWpsUYbq1rnI5BVRtq3j
GmnF2lmGpMj9NHhWMWJ9yhg0itHyo0SrIG1IeMe6IcokIjvfBBQc6A3En5yUAcSO
2xAA9QRBvTXFODN0iGFtcFwlMwRcPupuBvkQxdfZA4iyittdfxQ1V5UJIUQg1zHI
uBkQzI0ZOSMy4GEScezCxoRbxXGqFJA2nB5z5dFvHdPZonVxMUtdsM/XvigCWtgx
zxR4zSUF2lK0vYyVVpG9q9g0pvwYXyPmRwIyALZE71e+yhIkLU7HzIskBDvzRSx8
aWBDpeRrAHgVVc/wi/3ODYKiUyDn1lGpGjbzqEXDezBJccpkWiSG2OyWpFxA5ztl
XT5BDdRNd2q83zSzrewJw6j12z6Eb6ix/z1/r8LHefsVR88c1TxlZMklosKNoOak
bhOXdlNeloZAmIkCTgQTAQgAOBYhBL0PMGL4eEJBCwagQy9lawYQYESCBQJeovkx
AhsDBQsJCAcCBhUKCQgLAgQWAgMBAh4BAheAAAoJEC9lawYQYESCVbcQAIaoqTlY
PHqooAg6Fj4H/9WRffrH2C0nj1s4Qv+0SyYjJKpiTuWTtY9sHxnfwrKZvWa4jcB8
i7ZcGNVFLIb6O0gCd8QAQdTwyaLn7SUHHQmpWTCGQN+ekhf1k0NPonzZTaZaPkTI
51SlgYaqD5Hz2IVCR0dtM8g7IUE40IURygalezrWfvXPQpHQQXBZldT1MR2eq22a
uWAxIfTZPE+0me1jDmaSScP7NmwS6SfMMb/2WQN6WeYdcVZqAMG/OU/WFFtGjEXl
cjDw0Wet+3HfjmKpZGhW9yt9L0lHrY08rFpoUCe78xgZEaJc+HdzTlrTThXg4FaG
ayqxKxti9Aaka+34yvOssEtNOaCSCZrLKFTtl/I9J3XK6ShK74sPxguOootAKdD7
ygzn4fzurQSQG5QOBw1xeZfDdpRJ16hURY6bPu0mgfG3E6k9VO4ttGK41WfmrGgz
DZpI55qZ1RD8m5Qyx3Buaty6vKz7V18Pq3wfySMczcmbkfS4IoDdk9hmsdWLvGdS
gKucgi0GVS/8Fs3XcJsfwklIWwPjl2ir8KSryeR0W7qa934+7Pc62+2k6zj2msdn
YvNxxZ62nyNYoNkAZPe5KfQvrbP2T1aEKaZg/tHVtNN3cFAquWw6gFcCYrg1tRPB
CV6uoGmg93TVjNJckp0DB87DxV92PyfUcKKItB9QYWJsbyBHcmVjbyA8cHNncmVj
b0BnbWFpbC5jb20+iQJRBBMBCAA7FiEEvQ8wYvh4QkELBqBDL2VrBhBgRIIFAmYl
Mr4CGwMFCwkIBwICIgIGFQoJCAsCBBYCAwECHgcCF4AACgkQL2VrBhBgRII2WRAA
0A97OmUdmdj3oDq0uL8qYdnSIZIVMvypBTAVnqGZ1VVvjP/rxKu17IQ9cbvVwfI+
s73n/c2kxbO/IbBO4Aor1qHYvUqzQ9v62ZXtQN0FOwb1K0GAQmDnvxKO6fN4V5fZ
7i3ss/Ub9wtLWeQm5TDJE6Ynu1xQ+0ebV4bE88xB01XuO9s6zAa5C5i0EGKc6bBg
z3KFH97iBh5p2L+HmTiLMK4WZhafsOIz+02tkzBIwrN2im3bgr+uyphir0GLtsh/
h++wxfcOE88/WfnZWz6m+/QFPynFj4pnduz/yoem9tAZxOd71y6XMUQtfFTcyJ5m
KUhEpVw/hGk6Bhzo3T3dSGeQFT/unB2ZC/MnlDjNGjZ0BuBERQhVlilpdpYK3Nc9
b0fREIGOJZTww3HrnDVN35RzdGAoNqSAQ+ZItgTRIjmLmonxkBCT5+52foev5RcH
eSqFvtstjpZaAjJ4bymkePAMQQySPnmR9ic4nq3NQPE3mSOvAupE+A20cJWQB9Bz
prWn7g8SO+1uQnSiXDJhGpGklZrZPx4lrjdBytoq59jDLmHqld7HCOQlHYxoC0lI
D0PJOvafJff61ZimC27d9a1kvC7yl2HL6Gp0JLRZXgmK+t8Ubz0NJOclYHrutS99
gebzlFMcUxomfwNI/2x7MemCOdVC9guCZ1RlfblJO/a5Ag0EX+CKsQEQAMyLE4QP
xLlV4sTlLLgym4o3ObXAhiZNZuYuiOzP/8la+0Uws5GqDWtncg16m7VH5hM02azI
lHIJ8QzaY/XlpbIQfWk5JEzn79TElFItss0Tejz7lDuWrMzCg9KG1XkWRyyNdGSQ
HDMSlkyFWEMO5W8yYX5KGqWDaqckma4CAZm5ZEy9FLjJb11VhTBt43yF3oxCUKfG
QOvyOUygacKoFfFlY/7kHmfVWDrqWOO81amhwJxzUHspOMI5uIc/wmXpmoeUo6fD
TQ+1FqzMce6yu6gYtCYKT5+BCEG9v5Sb65XNyaBz+jnqcM1Y0StD8+UVKa4Q6n6o
PiOEY4uZ1qwVSGflWfjwKedP2pfJ+hnbVomxZZHuSdwxokOf0LTTZP6XbQaeLpKN
6ZScK1GBEQ5d0NRBjmiBd6uw2Wyic8f0WESBJPLAMwqqhyNZdO8VIlNgV25kdenl
6pWbwinTicLFgd7DgjUwpIm1Pj3X4l3mKKCg9wbUo6MIKdEPquXZbjToaF9vtcJt
uD3xSWwBiB5oKAdMNaSIyQizTTwJFAhnWvMXbV8cfKTihl6pec8Evb7F0Eeulan+
Z95DF39dI2hlEWmQhrZzWu6cGyW7hBq4znV4YZHxVoTqMS5WrjoZihrxdNEv2KU5
CPLBgCxBGPFZhOxszp0E103aa9k9He0Zj9AXABEBAAGJAjYEGAEIACAWIQS9DzBi
+HhCQQsGoEMvZWsGEGBEggUCX+CKsQIbDAAKCRAvZWsGEGBEgg9MD/94vDGG3ZbF
wEj8uvc9v3jbWxHBLVYe0HoWfByYJJ1O+EaawefvhSCtggLtOh7hbxHrtxKeM6as
94Dt+L/uAZ9Dm3/wdWtL54kSfGiwc5FSRwAF94jzJ/TRNlNjvsanYLXYDdqqV/6t
vzzdIHJu/d93bC+bUmh7+W333vR3O/szvF4BVBrDlcwZ6eO5j23Xg/jP0kyi9rFF
rbepRd6LffJK8SDj2xBpg6uRiVqydDQELO58dFM/K7iC2Df9lUnykprnhodl1XrE
CVVc9cRmHND9D4w/22WBn5nlOcNQsz05hpoBIBYofAyPIeO+oHNtQAgqDhvXkiUz
ySMrR2ZklPgoZ1RJo8jKbubL8rUk6OEX/gqUazsWuwosaSiWO+bqTOtYHIGsq+JE
aKxulhw/gLm5j+OLdKefpsRY3hzzGQTrRXIb7FTqb50rkKmc+O61iLoqwqJs5WZt
Y3HIMwRXDtYLyL/8TZ2slT7aKIZLg5gSQmDeMENOKN7woibQB1Emku6u0JizQHJA
fY1JO4fk3xNZBRgn9ef6vPnfWcFXvu2uYzfFv7b0EavunU/rRkWo9Pu88j5yYH8N
Uw/gNQgg/50iD87u6+0F/qEH5gxKZS46L1TcAxeRPAaTiNquOP35IXfsWIe36KKz
9ZDPBme1hIc+vKhs1L1YBPI7UXEh5B9uSg==
=KCW3
-----END PGP PUBLIC KEY BLOCK-----
